X:1
T:James Gibb editions
T:When morning gilds the skies - Barnby
%%score [ ( 1 2 ) ( 3 4 ) ]
L:1/8
Q:1/4=100
M:4/4
K:C
V:1 treble nm="Midi_20"
V:2 treble 
V:3 bass nm="Midi_20"
V:4 bass 
V:1
"^Laudes Domini (666. D)""^Joseph Barnby\n(1838-96)""^When morning gilds the skies""^Edward Caswall\n(1814-78)" E2 | %1
 F2 G2 A2 c2 | (B4 A2) G2 | A2 B2 c2 e2 | d6 c2 | B2 c2 A3 G | G6 ||[M:4/4] G2 | G2 c2 B2 c2 | %9
 G6 G2 | G2 c2 B2 c2 | G6 G2 | G4 c4 | c4 d4 | c6 |] %15
V:2
 C2 | C2 C2 C2 F2 | F6 F2 | E2 G2 G2 G2 | (^F4 G2) D2 | D2 E2 C3 C | B,6 ||[M:4/4] D2 | %8
 C2 C2 F2 F2 | (F4 E2) D2 | C2 E2 ^F2 F2 | (G2 D2 E2) F2 | (E2 F2) G4 | F4 F4 | E6 |] %15
V:3
 G,2 | G,2 G,2 F,2 A,2 | (B,4 C2) D2 | E2 D2 C2 C2 | (C4 B,2) A,2 | G,2 G,2 G,2 ^F,2 | G,6 || %7
[M:4/4] B,2 | %8
"^1. When morning gilds the skies,\nMy heart awaking cries,\n'May Jesus Christ be praised!'\nAlike at work or prayer\nTo Jesus I repair:\n'May Jesus Christ be praised!'\n\n2. When sleep her balm denies,\nMy silent spirit cries,\n'May Jesus Christ be praised!'\nWhen evil thoughts molest,\nWith this I shield my breast,\n'May Jesus Christ be praised!'\n\n3. Does sadness fill my mind?\nA solace here I find,\n'May Jesus Christ be praised!'\nOr fades my earthly bliss?\nMy comfort still is this,\n'May Jesus Christ be praised!'" C2 G,2 B,2 A,2 | %9
 (D2 C2 B,2) B,2 | C2 G,2 D2 C2 | %11
"^4. To God, the Word, on high\nThe hosts of angels cry,\n'May Jesus Christ be praised!'\nLet mortals, too, upraise\nTheir voice in hymns of praise:\n'May Jesus Christ be praised!'\n\n5. In heaven's eternal bliss\nThe loveliest strain is this,\n'May Jesus Christ be praised!'\nLet air and sea and sky,\nFrom depth to height, reply,\n'May Jesus Christ be praised!'\n\n6. Be this, while life is mine,\nMy canticle divine,\n'May Jesus Christ be praised!'\nBe this the eternal song\nThrough all the ages long,\n'May Jesus Christ be praised!'" B,6 B,2 | %12
 (C2 D2) E4 | C6 B,2 | C6 |] %15
V:4
 C,2 | D,2 E,2 F,2 D,2 | (G,4 A,2) B,2 | C2 B,2 A,2 A,2 | (D,4 E,2) ^F,2 | G,2 C,2 D,2 D,2 | %6
 G,,6 ||[M:4/4] =F,2 | E,2 E,2 D,2 C,2 | (B,,2 A,,2 G,,2) F,2 | E,2 C,2 D,2 D,2 | %11
 (G,2 F,2 E,2) D,2 | C,4 _B,4 | A,4 G,4 | C,6 |] %15

